!!!OTL: N6b. Beethoven, Piano Sonata op. 2 no. 3, mvt. 3, coda
!!!OMD: Coda (Allegro)
**kern	**kern
*staff2	*staff1
*clefF4	*clefG2
*k[]	*k[]
*M3/4	*M3/4
*MM180	*MM180
=65-	=65-
4r	4r
4r	4r
4AA\ 4A\	4a\ 4aa\
=66	=66
4AAA/ 4AA/	4A/ 4a/
4r	4r
4r	4r
=67	=67
4r	4r
4r	4r
4FF#/ 4F#/	4f#\ 4ff#\
=68	=68
4FFF#/ 4FF#/	4F#/ 4f#/
4r	4r
4FFF#/ 4FF#/	4F#/ 4f#/
=69	=69
4GGG/ 4GG/	4G/ 4g/
8r	4r
(8GG/L	.
8FF#/	4r
8GG/J)	.
=70	=70
(4AA-^/	2.d/ 2.fn/ 2.b/
4GG/)	.
4GG'/	.
=71	=71
(4AA-^/	2.c/ 2.e/ 2.cc/
4GG/)	.
4GG'/	.
=72	=72
(4AA-/	2.c/ 2.e-/ 2.f#/
4GG/)	.
4GG'/	.
=73	=73
(4AA-/	2.B/ 2.d/ 2.g/
4GG/)	.
4GG'/	.
=74	=74
*^	*
[2.G/	(4AA-\	2.c/ 2.en/
.	4GG\)	.
.	4GG'\	.
=75	=75	=75
2.G/]	(4AA-\	2.d/ 2.f/
.	4GG\)	.
.	4GG'\	.
=76	=76	=76
2.F/	(4AA-\	2.B/ 2.d/
.	4GG\)	.
.	4GG'\	.
=77	=77	=77
2.E/ 2.G/	4CC\	2.c/
.	8r	.
.	(8CC\L	.
.	8BBB\	.
.	8CC\J)	.
*v	*v	*
=78	=78
(4DD-/	2.B/ 2.f/
4CC/)	.
4CC'/	.
=79	=79
(4DD-/	2.c/ 2.e/
4CC/)	.
4CC'/	.
=80	=80
(4DD-/	2.f/ 2.b/
4CC/)	.
4CC'/	.
=81	=81
(4DD-/	2.e/ 2.cc/
4CC/)	.
4CC'/	.
=82	=82
(4DD-/	2.b\ 2.ff\
4CC/)	.
4CC'/	.
=83	=83
(4DD-/	2.cc\ 2.ee\
4CC/)	.
4CC'/	.
=84	=84
(4DD-/	2.ff\ 2.bb\
4CC/)	.
4CC'/	.
=85	=85
4CC/	4ee\ 4ccc\
4r	4r
*^	*
(4BB/	(4BBB\	4ry
=86	=86	=86
4C/)	4CC\)	2.rry
4r	4r	.
(4BB/	(4BBB\	.
=87	=87	=87
4C/)	4CC\)	4.ry
8r;	8r;	.
*v	*v	*
==	==
*-	*-
!!!hum2abc: -q
